styles/icons/polygon.svg

<svg xmlns="http://www.w3.org/2000/svg" xmlns:xlink="http://www.w3.org/1999/xlink" width="24" height="24" viewBox="0 0 24 24">
  <defs>
    <polygon id="polygon-a" points="10.995 4.5 13.385 4.5 19.683 9.259 20.11 11.489 17.586 19.416 16.273 20.451 7.781 20.451 6.142 19.105 3.75 11.338 4.606 9.259"/>
    <path id="polygon-b" d="M3.03855758,11.427685 C2.43590846,11.2330471 2,10.6674295 2,10 C2,9.17157288 2.67157288,8.5 3.5,8.5 C3.72102777,8.5 3.93088997,8.54780554 4.11981089,8.63364093 L10.5682286,3.9485912 C10.5238943,3.80694456 10.5,3.65626269 10.5,3.5 C10.5,2.67157288 11.1715729,2 12,2 C12.8284271,2 13.5,2.67157288 13.5,3.5 C13.5,3.59585682 13.4910085,3.68961356 13.473823,3.78047284 L20.059959,8.56558071 C20.1991136,8.52294367 20.3468774,8.5 20.5,8.5 C21.3284271,8.5 22,9.17157288 22,10 C22,10.6979333 21.523336,11.2845357 20.8777939,11.4520215 L18.341456,19.258067 C18.73889,19.5278686 19,19.9834416 19,20.5 C19,21.3284271 18.3284271,22 17.5,22 C16.8468906,22 16.2912711,21.5825962 16.0853529,21 L7.91464715,21 C7.70872894,21.5825962 7.15310941,22 6.5,22 C5.67157288,22 5,21.3284271 5,20.5 C5,20.0105574 5.23441648,19.5758656 5.5971013,19.3020729 L3.03855758,11.427685 Z M4.07625395,11.3853181 L6.55068711,19.0008403 C7.18173527,19.0217935 7.71407717,19.4325353 7.91464715,20 L16.0853529,20 C16.2776877,19.4558348 16.7751093,19.0557869 17.3720979,19.0053765 L19.8575775,11.3558568 C19.3505688,11.1152035 19,10.5985416 19,10 C19,9.7056848 19.0847637,9.43116723 19.2312106,9.19952777 L12.9659976,4.64758407 C12.705023,4.86749037 12.3679861,5 12,5 C11.6924024,5 11.4064296,4.9074129 11.1684302,4.74858719 L4.8477718,9.34081435 C4.94526513,9.53977462 5,9.7634953 5,10 C5,10.6242452 4.61867531,11.1594272 4.07625395,11.3853181 Z M12,4 C12.2761424,4 12.5,3.77614237 12.5,3.5 C12.5,3.22385763 12.2761424,3 12,3 C11.7238576,3 11.5,3.22385763 11.5,3.5 C11.5,3.77614237 11.7238576,4 12,4 Z M6.5,21 C6.77614237,21 7,20.7761424 7,20.5 C7,20.2238576 6.77614237,20 6.5,20 C6.22385763,20 6,20.2238576 6,20.5 C6,20.7761424 6.22385763,21 6.5,21 Z M17.5,21 C17.7761424,21 18,20.7761424 18,20.5 C18,20.2238576 17.7761424,20 17.5,20 C17.2238576,20 17,20.2238576 17,20.5 C17,20.7761424 17.2238576,21 17.5,21 Z M20.5,10.5 C20.7761424,10.5 21,10.2761424 21,10 C21,9.72385763 20.7761424,9.5 20.5,9.5 C20.2238576,9.5 20,9.72385763 20,10 C20,10.2761424 20.2238576,10.5 20.5,10.5 Z M3.5,10.5 C3.77614237,10.5 4,10.2761424 4,10 C4,9.72385763 3.77614237,9.5 3.5,9.5 C3.22385763,9.5 3,9.72385763 3,10 C3,10.2761424 3.22385763,10.5 3.5,10.5 Z"/>
  </defs>
  <g fill="none" fill-rule="evenodd">
    <use fill="#333" opacity=".2" xlink:href="#polygon-a"/>
    <use fill="#333" xlink:href="#polygon-b"/>
  </g>
</svg>

<svg fill="#333333" width="24" height="24" viewBox="0 0 24 24" xmlns="http://www.w3.org/2000/svg">
    <polygon opacity="0.2" points="11,4.5 13.4,4.5 19.7,9.3 20.1,11.5 17.6,19.4 16.3,20.5 7.8,20.5 6.1,19.1 3.8,11.3 4.6,9.3 "/>
    <path d="M3,11.4c-0.6-0.2-1-0.8-1-1.4c0-0.8,0.7-1.5,1.5-1.5c0.2,0,0.4,0,0.6,0.1l6.4-4.7c0-0.1-0.1-0.3-0.1-0.4C10.5,2.7,11.2,2,12,2s1.5,0.7,1.5,1.5c0,0.1,0,0.2,0,0.3l6.6,4.8c0.1,0,0.3-0.1,0.4-0.1c0.8,0,1.5,0.7,1.5,1.5c0,0.7-0.5,1.3-1.1,1.5l-2.5,7.8c0.4,0.3,0.7,0.7,0.7,1.2c0,0.8-0.7,1.5-1.5,1.5c-0.7,0-1.2-0.4-1.4-1H7.9c-0.2,0.6-0.8,1-1.4,1C5.7,22,5,21.3,5,20.5c0-0.5,0.2-0.9,0.6-1.2L3,11.4z M4.1,11.4L6.6,19c0.6,0,1.2,0.4,1.4,1h8.2c0.2-0.5,0.7-0.9,1.3-1l2.5-7.6C19.4,11.1,19,10.6,19,10c0-0.3,0.1-0.6,0.2-0.8L13,4.6C12.7,4.9,12.4,5,12,5c-0.3,0-0.6-0.1-0.8-0.3L4.8,9.3C4.9,9.5,5,9.8,5,10C5,10.6,4.6,11.2,4.1,11.4z M12,4c0.3,0,0.5-0.2,0.5-0.5S12.3,3,12,3s-0.5,0.2-0.5,0.5S11.7,4,12,4z M6.5,21C6.8,21,7,20.8,7,20.5S6.8,20,6.5,20S6,20.2,6,20.5S6.2,21,6.5,21z M17.5,21c0.3,0,0.5-0.2,0.5-0.5S17.8,20,17.5,20S17,20.2,17,20.5S17.2,21,17.5,21z M20.5,10.5c0.3,0,0.5-0.2,0.5-0.5s-0.2-0.5-0.5-0.5S20,9.7,20,10S20.2,10.5,20.5,10.5z M3.5,10.5C3.8,10.5,4,10.3,4,10S3.8,9.5,3.5,9.5S3,9.7,3,10S3.2,10.5,3.5,10.5z"/>
</svg>
